X:1
T:I ensomme Stunde
T:I ensomme Stunde
T:Marcus Jacob Monrad (1816 - 1897)
T:Mel. Ole Bull (1810 - 1880) Harm. Johan D. Behrens (1820 - 1890) 
C:Mel. Ole Bull (1810 - 1880) Harm. Johan D. Behrens (1820 - 1890)
%%score [ 1 2 3 4 ]
L:1/8
M:4/4
K:Ab
V:1 treble-8 nm="T1"
V:2 treble-8 nm="T2"
V:3 bass nm="B1"
V:4 bass nm="B2"
V:1
"^Andantino"!p! c2 | c4!<(! f2 _e2!<)! |!>(! (e2 d2) c4!>)! | B4 A2 F2 | G4 z2!mf! c2 | %5
w: 1.I|en- som- me|Stun- * de,|naar det er|tyst, da|
w: 2.Mit|höit- stem- te|Hjer- * te|for- dum gav|Klang, til|
w: 3.Dog|en- kel- te|Stun- * de,|naar det er|tyst, lad|
!<(! c4 f2 _e2!<)! |!>(! (e2 d2) c4!>)! | !>!B4!>(! B2 c2!>)! | A4 z2!mf! c2 | %9
w: blö- der en|vun- * de|dybt i mit|Bryst, og|
w: en- gang i|smer- * te|Stren- ge- ne|sprang. Nu|
w: blö- den- de|Vun- * de|dybt i mit|Bryst, lad|
 c2 d2!<(! c2 B2!<)! | B2 A2!>(! G2 c2!>)! | A4 z2!<(! c2!<)! |!f! a3 a g2 f2 | %13
w: gam- le Min- der|duk- ke at- ter|frem. Tids-|böl- ger mer ei|
w: Li- vet mig om-|fly- der som et|Hav, og|u- den Suk jeg|
w: gam- le Min- der|duk- ke at- ter|frem, til|Dö- dens Taa- ger|
 =e2!>(! c2 A2 B2!>)! | c4!pp! A2 G2 | F4 z2 |] %16
w: luk- ke o- ver|dem, o- ver|dem.|
w: ly- der ti- dens|Krav, ti- dens|Krav.|
w: luk- ke o- ver|dem, o- ver|dem.|
V:2
!p! F2 | =E4!<(! c2 c2!<)! |!>(! (c2 B2) A4!>)! | G4 F2 F2 | =E4 z2!mf! G2 | %5
w: 1.I|en- som- me|Stun- * de,|naar det er|tyst, da|
w: 2.Mit|höit- stem- te|Hjer- * te|for- dum gav|Klang, til|
w: 3.Dog|en- kel- te|Stun- * de,|naar det er|tyst, lad|
!<(! (A2 =A2) B2 c2!<)! |!>(! (c2 B2) _A4!>)! | !>!A4!>(! G2 G2!>)! | A4 z2!mf! A2 | %9
w: blö- * der en|vun- * de|dybt i mit|Bryst, og|
w: en- * gang i|smer- * te|Stren- ge- ne|sprang. Nu|
w: blö- * den- de|Vun- * de|dybt i mit|Bryst, lad|
 G2 G2!<(! A2 G2!<)! | G2 F2!>(! =E2 G2!>)! | F4 z2!<(! A2!<)! |!f! d3 d d2 c2 | %13
w: gam- le Min- der|duk- ke at- ter|frem. Tids-|böl- ger mer ei|
w: Li- vet mig om-|fly- der som et|Hav, og|u- den Suk jeg|
w: gam- le Min- der|duk- ke at- ter|frem, til|Dö- dens Taa- ger|
 c2!>(! c2 A2 F2!>)! | G4!pp! F2 =E2 | F4 z2 |] %16
w: luk- ke o- ver|dem, o- ver|dem.|
w: ly- der ti- dens|Krav, ti- dens|Krav.|
w: luk- ke o- ver|dem, o- ver|dem.|
V:3
!p! A,2 | G,4!<(! F,2 F,2!<)! |!>(! F,4 F,4!>)! | (F,2 =E,2) C,2 C,2 | C,4 z2!mf! =E,2 | %5
w: 1.I|en- som- me|Stun- de,|naar _ det er|tyst, da|
w: 2.Mit|höit- stem- te|Hjer- te|for- * dum gav|Klang, til|
w: 3.Dog|en- kel- te|Stun- de,|naar _ det er|tyst, lad|
!<(! (F,2 _G,2) F,2 F,2!<)! |!>(! F,4 F,4!>)! | !>!F,4!>(! E,2 E,2!>)! | C,4 z2!mf! F,2 | %9
w: blö- * der en|vun- de|dybt i mit|Bryst, og|
w: en- * gang i|smer- te|Stren- ge- ne|sprang. Nu|
w: blö- * den- de|Vun- de|dybt i mit|Bryst, lad|
 =E,2 E,2!<(! F,2 D,2!<)! | C,2 C,2!>(! C,2 =E,2!>)! | F,4 z2!<(! F,2!<)! |!f! B,3 B, B,2 A,2 | %13
w: gam- le Min- der|duk- ke at- ter|frem. Tids-|böl- ger mer ei|
w: Li- vet mig om-|fly- der som et|Hav, og|u- den Suk jeg|
w: gam- le Min- der|duk- ke at- ter|frem, til|Dö- dens Taa- ger|
 B,2!>(! G,2 A,2 F,2!>)! | =E,4!pp! C,2 C,2 | F,4 z2 |] %16
w: luk- ke o- ver|dem, o- ver|dem.|
w: ly- der ti- dens|Krav, ti- dens|Krav.|
w: luk- ke o- ver|dem, o- vet|dem.|
V:4
!p! F,,2 | (C,2 B,,2)!<(! A,,2 =A,,2!<)! |!>(! (B,,2 D,2) F,4!>)! | C,4 F,,2 A,,2 | %4
w: 1.I|en- * som- me|Stun- * de,|naar det er|
w: 2.Mit|höit- * stem- te|Hjer- * te|for- dum gav|
w: 3.Dog|en- * kel- te|Stun- * de,|naar det er|
 C,4 z2!mf! C,2 |!<(! (F,2 _E,2) D,2 =A,,2!<)! |!>(! B,,2 D,2 F,4!>)! | !>!D,4!>(! E,2 E,2!>)! | %8
w: tyst, da|blö- * der en|vun- * de|dybt i mit|
w: Klang, til|en- * gang i|smer- * te|Stren- ge- ne|
w: tyst, lad|blö- * den- de|Vun- * de|dybt i mit|
 A,,4 z2!mf! F,,2 | C,2 B,,2!<(! A,,2 B,,2!<)! | C,2 C,2!>(! C,2 C,2!>)! | F,4 z2!<(! F,2!<)! | %12
w: Bryst, og|gam- le Min- der|duk- ke at- ter|frem. Tids-|
w: sprang. Nu|Li- vet mig om-|fly- der som et|Hav, og|
w: Bryst, lad|gam- le Min- der|duk- ke at- ter|frem, til|
!f! =E,3 E, E,2 F,2 | G,2!>(! =E,2 F,2 D,2!>)! | C,4!pp! C,2 C,2 | F,4 z2 |] %16
w: böl- ger mer ei|luk- ke o- ver|dem, o- ver|dem.|
w: u- den Suk jeg|ly- der ti- dens|Krav, ti- dens|Krav.|
w: Dö- dens Taa- ger|luk- ke o- ver|dem, o- ver|dem.|

